X:1
T:Two daugthers of this aged stream
T:Two daughters of this aged stream
T:King Arthur
T:Henry Purcell
C:Henry Purcell
%%score [ 1 2 ] { ( 3 5 6 ) | ( 4 7 ) }
L:1/8
Q:1/4=70
M:4/4
K:G
V:1 treble nm="Sopran"
V:2 treble nm="Alt"
V:3 treble nm="Cembalo"
V:5 treble 
V:6 treble 
V:4 bass 
V:7 bass 
V:1
 z8 | z8 | z4 B4 | A3 G A2 B2 | G3 F E2 F3/2 G/ | F4 z4 | z4 e4 | d3 c d2 e2 | c3 B c>e d>c | %9
w: ||Two|daugh- ters of this|a- ged stream _ are|we,|Two|daugh- ters of this|a- ged stream _ _ _|
 B>d c>B A3 d | B2 B2 c2 B2 | A2 G2 F2 E2 | ^D2 ^d2 e2 =d2 | ^c2 d2 c2 B2 | ^A2 B2 ^c2 d2 | %15
w: _ _ _ _ _ are|we, And both, our|sea- green locks have|comb'd, and both, our|sea- * green _|locks have comb'd, have|
 ed ^cB B4 | B2 F2 G2 F2 | G2 ^D2 E2 D2 | ^D/E/F ED E3 E | F2 ^G2 A4 | c2 ^G2 A2 G2 | e2 B2 c2 B2 | %22
w: comb'd _ for _ thee,|Come, _ come, _|come, _ come, _|stay _ _ with _ us an|hour or two,|Come, _ come, _|come, _ come _|
 B/c/d cB c2 B2 | A2 ^G A G4 | z2 B2 BE E2 | z2 =f2 fB B2 | B2 cd c3 B/A/ | A4 z4 | z8 | %29
w: stay _ _ with _ us an|hour _ or two.|What dan- * ger,|what dan- * ger|from so _ sweet a _|foe?||
 d2 A2 B2 A2 | B2 c2 A4 | B2 F2 G2 F2 | F/G/A GF G2 E2 | A>B A>c B>A G3/2 F/ | E2 F3/2 G/ E3 D | %35
w: Come, _ come _|stay with us,|come, _ come _|stay _ _ and _ share What|plea- * * * * * * sures|in _ the flood ap-|
 D4 z4 | z4 z2 D2 | A2 F2 F2 D2 | D2 B,2 B4 | z2 G2 d2 B2 | B2 G2 G2 E2 | e4 z2 e2 | dcBc Bc dB | %43
w: pear.|We'll|beat the wa- ters|till they bound,|we'll beat the|wa- ters till they|bound And|cir- * * * * * cle _|
 cBAB cBAG | F4 z4 | z2 B2 AGFG | FE^DE FG AF | GABA GABG | cB AG G2 FE | E8 |] %50
w: round, _ _ _ _ _ _ _|_|and cir- * * *|* * * * * * cle _|round, _ _ _ _ _ _ _|_ _ and _ cir- cle _|round.|
V:2
 z4 B4 | A3 G A2 B2 | G3 F E2 F3/2 G/ | F4 z4 | z4 e4 | d3 c d2 e2 | c3 B A2 B3/2 c/ | B4 B4 | %8
w: Two|daugh- ters of this|a- ged stream _ are|we,|Two|daugh- ters of this|a- ged stream _ are|we, Two|
 A3 G A2 B2 | G2 A2 F3 F | G4 z2 B2 | c2 B2 A2 G2 | F2 GA G3 F | E2 B2 e2 d2 | ^c2 dB ^A2 B2 | %15
w: daugh- ters of this|a- ged stream are|we, And|both, our sea- green|locks have _ comb'd for|thee, and both, our|sea- green _ locks have|
 B2 ^A2 B4 | z8 | B2 F2 G2 F2 | F/G/A GF G3 G | A2 B2 c4 | e2 B2 c2 B2 | c2 ^G2 A2 G2 | %22
w: comb'd for thee,||Come, _ come, _|stay _ _ with _ us an|hour or two,|Come, _ come, _|come, _ come _|
 ^G/A/B AG A2 E2 | E=F ED E4 | z4 z2 e2 | eA A2 A4- | A3 B B2 A ^G | A4 z4 | d2 A2 B2 A2 | %29
w: stay _ _ with _ us an|hour _ or _ two.|What|dan- * ger from|_ so sweet _ a|foe?|Come, _ come, _|
 B2 F2 G2 F2 | G2 A2 F4 | G2 ^D2 E2 D2 | ^D/E/F ED E2 ^C2 | F>G F>A G>F E3/2 D/ | %34
w: come, _ come _|stay with us,|come, _ come _|stay _ _ and _ stare What|plea- * * * * * * sures|
 ^C2 D3/2 E/ D2 C3/2 D/ | D4 z4 | z2 D2 A2 F2 | F2 D2 D2 B,2 | B4 z2 G2 | d2 B2 B2 G2 | G2 E2 e4 | %41
w: in _ the flood _ ap-|pear.|We'll beat the|wa- ters till they|bound, we'll|beat the wa- ters|till they bound|
 z2 e2 dcBc | BA^GA GA BG | A=GFG AGFE | ^D4 z2 B2 | AGFG FE^DE | ^D^CB,C DE FD | EFGF EFGE | %48
w: And cir- * * *|* * * * * * cle _|round, _ _ _ _ _ _ _|_ and|cir- * * * * * * *|* * * * * * cle _|round, _ _ _ _ _ _ _|
 AG FE E2 ^D2 | E8 |] %50
w: _ _ and _ cir- cle|round.|
V:3
!mp! [G,B,E]4 [B,EG]4 | [FA]8 | [EG]3 [^DF] E2 [EB]2 | F8 | [EG]3 [^DF] E2 [EB]2 | [=DFB]6 [EBe]2 | %6
 [EAc]3 [DB] [CA]2 [DB]>[Ec] | [D=FB]4 [DEB]4 | [CEA]4 [C=FA]2 [B,FB]2 | [B,EG]2 [A,EA]2 [A,^F]4 | %10
 G8 | [CF]2 [B,G]2 [A,F]2 [G,E]2 | [F,^D]2 [GB][FA] [GB]2 B2 | [A^c]2 [Bd]2 [ce]2 [Bd]2 | %14
 [E^A^c]2 [DFB]2 [^CA]2 [B,DB]2 | B2 ^A2 [DFB]4 | [F,B,^D]2 F/G/A [EG]2 [DF]2 | %17
 [GB]2 [^DF]2 [EG]2 [DF]2 | [^DF][FA][EG][DF] [B,EG]2 [EG]2 | [EFA]2 [E^GB]2 [EAc]2 [CEA]2 | %20
 [CEA]2 [B,E^G]2 [Ac]2 [GB]2 | [ce]2 [^GB]2 [CA]2 [B,G]2 | [B,^G][DB][CA][B,G] [CEA]2 [B,EB]2 | %23
 A2 ^GA [EG]4 | z2 [B,E^GB]2 [B,B]2 [A,A]2 | =F4- F2 E2 | [B,D]2 [CE][D=F] [CE]3 [DE] | %27
 [A,CE]2 [CEA]2 [EAc]4 | [DAd]4 B2 A2 | [Bd]2 [FA]2 [B,G]2 [A,F]2 | [B,G]2 [CA]2 [A,F]4 | %31
 [GB]2 [^DF]2 [EG]2 [DF]2 | [FA][^DF][EG][FA] [B,EG]2 [^CGA]2 | [FA]4 [GB]>[FA] [EG]>[^DF] | %34
 [^CE]2 [A,DF]2 [A,DE]2 [CA]2 | [DF]8 | [DFA]4 [DF]4 | [F,A,D]2 [A,DF]2 [B,DF]2 [DFB]2 | %38
 [DGB]4 [B,DG]4 | [B,DG]2 [DGB]2 [DGB]2 [GBd]2 | [EGBe]4 [EGce]4 | [EAce]2 [EAc]2 [CEA]4 | %42
 [B,=FA]2 [B,FA]2 z2 [B,DE^G]2 | z2 AG F2 E2 | [A,^D]2 D2 B4 | B4 [FA][EG][^DF][EG] | %46
 [^DF][^CE][B,D][CE] [DF][EG][FA][DF] | [EG][FA][GB][FA] [EG][FA][GB][EG] | %48
 [Ac][GB][FA][EG] [B,EG]2 FE | [G,B,E]8 |] %50
V:4
 E,,8- | E,,4 ^D,,4 | E,,3 F,, G,,2 E,,2 | A,,4 B,,4 | E,3 F, G,2 E,2 | B,6 ^G,2 | A,4 A,,4- | %7
 A,,4 ^G,,4 | A,,4 [=F,,=F,]2 [D,,D,]2 | [E,,E,]2 [C,,C,]2 [D,,D,]4 | [G,,,G,,]8 | [A,,,A,,]8 | %12
 [B,,,B,,]8 | E,,8 | F,,4- [F,,,F,,]4 | [F,,,F,,]4 [B,,,F,,]4 | B,,8- | [B,,,B,,]8 | %18
 [B,,,B,,]4 [E,,E,]2 [D,,D,]2 | [C,,C,]2 [B,,,B,,]2 [A,,,A,,]4 | [E,,E,]8 | E,,8- | %22
 [E,,,E,,]4 [A,,,A,,]2 [=G,,,=G,,]2 | [=F,,,=F,,]4 [E,,,E,,]2 [E,,E,]2 | [D,,D,]4 [C,,C,]4 | %25
 [D,,D,]4 [E,,E,]4 | [=F,,=F,]2 [E,,E,][D,,D,] [E,,E,]2 E,,2 | A,,6 A,=G, | F,4 G,2 F,2 | %29
 D,4- [D,,D,]4 | D,4- [D,,D,]4 | [B,,,B,,]8 | B,,4 E,2 A,2 | D,4 G,2 G,,2 | %34
 A,,2 D,,2 A,,2- [A,,,A,,]2 | [D,,D,]2 D,2 A,2 F,2 | D8 | D,4 B,,4 | G,,8 | [G,,G,]8 | %40
 [E,,E,]4 [C,,C,]4 | [A,,,A,,]8 | [D,,D,]4 [E,,E,]2 E,,2 | A,,8 | B,,2 B,2 A,G,F,G, | %45
 F,E,^D,E, =C3 B, | A,G,F,G, A,B, C2 | [E,B,]4 [E,,E,][D,,D,][C,,C,][B,,,B,,] | %48
 [A,,,A,,][B,,,B,,][C,,C,][A,,,A,,] [B,,,B,,]2 [B,,,B,,]2 | [E,,B,,E,]8 |] %50
V:5
 x8 | C4 B,4 | B,4 B,4 | [CE]4 [B,^D]4 | B,4 B,4 | x8 | x8 | x8 | x8 | x4 C2 D2 | %10
 [B,D]2 [B,D]2 [CE]2 [B,D]2 | x8 | x2 B,4 GF | E8 | x4 FE x2 | [^CF]4 x4 | x2 [B,^D]2 B,4 | %17
 B,4- B,4 | B,4 x4 | x8 | x4 E4 | E3 D E4 | x8 | E=FED x4 | x4 E4 | E2 DC x4 | A,3 B, B,2 A,^G, | %27
 x8 | x4 D4 | D2 DC D4 | D4 x4 | B,8 | B,4 x4 | D2 C2 B,4 | x8 | x8 | x8 | x8 | x8 | x8 | x8 | x8 | %42
 x8 | [A,C]8 | x4 [^DF][^CE][B,D][CE] | [^DF][EG][FA][EG] x4 | x8 | x4 E4 | E2 A,C x2 [A,B,^D]2 | %49
 x8 |] %50
V:6
 x8 | x8 | x8 | x8 | x8 | x8 | x8 | x8 | x8 | x8 | x8 | x8 | x8 | x8 | x8 | x8 | x8 | x8 | x8 | %19
 x8 | x8 | x8 | x8 | x8 | x8 | A,4- [A,B,]4 | x8 | x8 | x8 | x8 | x8 | x8 | x8 | x8 | x8 | x8 | %36
 x8 | x8 | x8 | x8 | x8 | x8 | x8 | x8 | x8 | x8 | x8 | x8 | x8 | x8 |] %50
V:7
 x8 | x8 | x8 | x8 | x8 | x8 | x8 | x8 | x8 | x8 | x8 | x8 | x8 | x8 | x8 | x8 | x8 | x8 | x8 | %19
 x8 | x8 | x8 | x8 | x8 | x8 | x8 | x8 | A,,4- A,,4 | D,8 | x8 | x8 | x8 | x8 | x8 | x8 | x2 D,6 | %36
 x8 | x8 | x8 | x8 | x8 | x8 | x8 | x8 | x8 | x8 | x8 | x8 | x8 | x8 |] %50

